X:1
T:Title
%%score { 1 | ( 2 3 ) }
L:1/8
M:3/4
K:Bb
V:1 treble nm="Grand Piano"
V:2 bass 
V:3 bass 
V:1
 z2 z2[Q:1/4=100] [B,D][CE] | [DF]2 [DF]2 [DF]2 | [EG]2 [DF]3 [DF] | [DB]2 [FA]2 .[G,EG]2 | %4
 [B,EG]2 [B,DF]3 [B,DF] | [B,EG]2 [B,GB]2 [B,EG]2 | [B,DF]2 [DFB]3 [DFB] | [CFA]2 [CGB]2 [B,=EG]2 | %8
 [A,F]4 [A,F][A,EF] | [DB]2 [Fd]2 [Ec]2 | [DB]2 [DF]3 [DF] | [EG]2 [GB]2 [EG]2 | [EG]2 [DF]3 [DF] | %13
 [FB]2 [Fc]2 [Fd]2 | [EG]2 [Gc]3 [GB] | A2 G2 A2 |[M:2/4] [DB]4 |[M:1/4] [DF]2 |[M:3/4] F2 F2 F2 | %19
 [DF]4 [DB][FA] | [FA]2 [EG]2 [GB][EG] | [EG]2 [DF]3 [DF] | [FB]2 [EA]2 [DB]2 | c2 c3 c | %24
 d2 c2 B2 | c4 F2 | [Fd]4 [DB][DF] | [EG]2 [DF]3 [DF] | [B,EG]2 [EGc]3 [CGB] | B2 A3 A | %30
 B2 [Gc]2 [Gd]2 | [Ge]4 [Gd][CGc] | [DFB]2 [EFc]3 [EFA] |[M:2/4] [DFB]4 |] %34
V:2
 z2 z2 [B,,F,][B,,F,] | [B,,B,]2 [B,,B,]2 [B,,B,]2 | [B,,B,]2 [B,,B,]3 [B,,B,] | %3
 [B,,F,]2 [B,,F,]2 z A, | B,,2 B,,3 B,, | E,2 E,2 E,2 | B,,2 B,,3 B,, | C,2 C,2 C,2 | F,4 F,F, | %9
 [B,,B,]2 [B,,B,]2 [B,,B,]2 | [B,,B,]2 [B,,B,]3 [B,,B,] | [E,B,]2 [E,B,]2 [E,B,]2 | %12
 [B,,B,]2 [B,,B,]3 [B,,B,] | [D,B,]2 [C,A,]2 [B,,B,]2 | [E,B,]2 [E,E]3 [=E,C] | %15
 [F,CF]2 [F,CE]2 [F,CE]2 |[M:2/4] [B,,B,]4 |[M:1/4] [B,,B,]2 |[M:3/4] [F,A,C]2 [F,B,D]2 [F,CE]2 | %19
 [B,,B,]4 [B,,B,][D,B,] | [E,B,]2 [E,B,]2 [E,B,]2 | [B,,B,]2 [B,,B,]3 [B,,B,] | %22
 [D,F,]2 [C,F,]2 [B,,B,]2 | [F,A,F]2 [F,A,F]3 [F,A,F] | [B,F]2 [A,CF]2[K:bass] [G,C=E]2 | %25
 [F,A,F]4 [F,A,]2 | [B,,B,]4 [B,,F,][B,,B,] | [B,,B,]2 [B,,B,]3 [B,,B,] | E,2 C,3 =E, | %29
 [F,DF]2 [F,CF]3 [F,CE] | [G,B,D]2 [E,G,]2 [D,=B,]2 | [C,C]4 [D,=B,]E, | F,2 F,3 F, | %33
[M:2/4] B,,4 |] %34
V:3
 x6 | x6 | x6 | z2 z2 B,,2 | x6 | x6 | x6 | x6 | x6 | x6 | x6 | x6 | x6 | x6 | x6 | x6 | %16
[M:2/4] x4 |[M:1/4] x2 |[M:3/4] x6 | x6 | x6 | x6 | x6 | x6 | x4[K:bass] x2 | x6 | x6 | x6 | x6 | %29
 x6 | x6 | x6 | x6 |[M:2/4] x4 |] %34

